X:1
T:Man lobt dich in der Stille
%%score [ 1 2 3 4 ]
L:1/8
Q:1/4=120
M:6/4
K:Bb
V:1 treble nm="MusicXML Part"
V:2 treble nm="MusicXML Part"
V:3 treble-8 nm="MusicXML Part"
V:4 bass nm="MusicXML Part"
V:1
 B2 | B4 A2 G4 F2 | %2
w: Man|lobt dich in der|
w: Es|müs- sen, Herr, sich|
w: Herr,|du hast dei- nen|
 (B4"^Weise: 15. Jahrhundert / geistlich bei Hans Kugelmann 1540\nSatz: Hans Leo Haßler 1564-1612" c2) d4 d2 | %3
w: Stil- * le, du|
w: freu- * en von|
w: Na- * men sehr|
 d4 d2 d4 c2 | B2 c4 B4 B2 | B4 A2 G4 F2 | (B4 c2) d4 d2 | d4 d2 d4 c2 | B2 c4 B4 B2 | %9
w: hoch er- hab- ner|Zi- ons- gott; des|Rüh- mens ist die|Fül- * le vor|dir, o Her- re|Ze- ba- oth. Du|
w: gan- zer Seel und|jauch- zen hell, die|un- auf- hör- lich|schrei- * en: Ge-|lobt sei der Gott|Is- ra- el! Sein|
w: herr­ lich in der|Welt ge- macht; denn|als die Schwa- chen|ka- * men, hast|du gar bald an|sie ge- dacht. Du|
 B4 d2 c4 d2 | (B4 A2) G4 c2 | c2- c2 A2 B2 G4 | F6 z4 F2 | B4 B2 c4 c2 | (d3 c d2) B4 B2 | %15
w: bist doch, Herr, auf|Er- * den der|From * ­ men Zu- ver-|sicht, in|Trüb- sal und Be-|schwer * * den läßt|
w: Na- me sei ge-|prie * sen, der|gro * ße Wun- der|tut und|der auch mir er-|wie * * sen das,|
w: hast mir Gnad er-|zei * get; nun,|wie * ver- gelt ichs|dir? Ach,|blei- be mir ge-|nei * * get, so|
 e4 e2 (d2 c2) d2 | c6 z4 c2 | d4 d2 e4 e2 | f6 B4 d2 | c2- c2 A2 B2 G4 | F6 z4 d2 | e4 d2 c4 B2 | %22
w: du die Dei * nen|nicht. Drum|soll dich stünd- lich|eh- ren mein|Mund * vor je- der-|mann und|dei- nen Ruhm ver-|
w: was mir nütz * und|gut. Nun,|dies ist mei- ne|Freu- de, zu|han * gen fest an|dir, daß|nichts von dir mich|
w: will ich für * und|für den|Kelch des Heils er-|he- ben und|prei * sen weit und|breit dich|hier, mein Gott, im|
 c6 c4 d2 | (e2 d2) c2 (B2 c2) d2 | (c6 B4) |] %25
w: meh- ren, so-|lang * er lal * len|kann. *|
w: schei- de, so-|lang * ich le * be|hier. *|
w: Le- ben und|dort * in E * wig-|keit. *|
V:2
 F2 | F4 F2 D4 D2 | (G3 FEC) F4 F2 | F4 G2 F4 A2 | G4 F2 D4 F2 | F4 F2 D4 D2 | (G3 FEC) F4 F2 | %7
w: Man|lobt dich in der|Stil * * * le, du|hoch er- hab- ner|Zi- ons- gott; des|Rüh- mens ist die|Fül- * * * le vor|
w: Es|müs- sen, Herr, sich|freu- * * * en von|gan- zer Seel und|jauch- zen hell, die|un- auf- hör- lich|schrei- * * * en: Ge-|
w: Herr,|du hast dei- nen|Na- * * * men sehr|herr­ lich in der|Welt ge- macht; denn|als die Schwa- chen|ka- * * * men, hast|
 F4 G2 F4 A2 | G4 F2 D4 F2 | G4 F2 F4 F2 | F6 (E2 B,2) E2 | (F2 =E2) F2 F4 E2 | F6 z4 C2 | %13
w: dir, o Her- re|Ze- ba- oth. Du|bist doch, Herr, auf|Er- den * der|From * ­ men Zu- ver-|sicht, in|
w: lobt sei der Gott|Is- ra- el! Sein|Na- me sei ge-|prie sen, * der|gro * ße Wun- der|tut und|
w: du gar bald an|sie ge- dacht. Du|hast mir Gnad er-|zei get; * nun,|wie * ver- gelt ichs|dir? Ach,|
 E4 F2 E4 C2 | F6 E4 F2 | G4 G2 F4 F2 | F6 z4 F2 | F4 G2 G4 G2 | C6 G4 F2 | (F2 =E2) F2 D2 C4 | %20
w: Trüb- sal und Be-|schwer- den läßt|du die Dei- nen|nicht. Drum|soll dich stünd- lich|eh- ren mein|Mund * vor je- der-|
w: der auch mir er-|wie sen das,|was mir nütz und|gut. Nun,|dies ist mei- ne|Freu- de, zu|han * gen fest an|
w: blei- be mir ge-|nei get, so|will ich für und|für den|Kelch des Heils er-|he- ben und|prei * sen weit und|
 A,6 z4 F2 | G4 F2 F4 D2 | F6 F4 F2 | (G2 F2) F2 (D2 F2) F2 | (F6 D4) |] %25
w: mann und|dei- nen Ruhm ver-|meh- ren, so-|lang * er lal * len|kann. *|
w: dir, daß|nichts von dir mich|schei- de, so-|lang * ich le * be|hier. *|
w: breit dich|hier, mein Gott, im|Le- ben und|dort * in E * wig-|keit. *|
V:3
 d2 | d4 c2 B4 A2 | (GA B3 A) B4 d2 | d4 B2 d4 f2 | (d2 G2) A2 B4 d2 | d4 c2 B4 A2 | %6
w: Man|lobt dich in der|Stil * * * le, du|hoch er- hab- ner|Zi- * ons- gott; des|Rüh- mens ist die|
w: Es|müs- sen, Herr, sich|freu- * * * en von|gan- zer Seel und|jauch- * zen hell, die|un- auf- hör- lich|
w: Herr,|du hast dei- nen|Na- * * * men sehr|herr­ lich in der|Welt * ge- macht; denn|als die Schwa- chen|
 (GA B3 A) B4 d2 | d4 B2 d4 f2 | (d2 G2) A2 B4 d2 | d4 B2 (c2 A2) B2 | d6 (B2 G2) G2 | %11
w: Fül * * * le vor|dir, o Her- re|Ze- * ba- oth. Du|bist doch, Herr, * auf|Er- den * der|
w: schrei- * * * en: Ge-|lobt sei der Gott|Is- * ra- el! Sein|Na- me sei * ge-|prie sen, * der|
w: ka- * * * men, hast|du gar bald an|sie * ge- dacht. Du|hast mir Gnad * er-|zei get; * nun,|
 (A2 G2) d2 d2 c4 | A6 z4 A2 | G4 F2 G4 A2 | (B3 A B2) G4 F2 | c4 B2 (B2 A2) B2 | A6 z4 A2 | %17
w: From * ­ men Zu- ver-|sicht, in|Trüb- sal und Be-|schwer * * ­den läßt|du die Dei * nen|nicht. Drum|
w: gro * ße Wun- der|tut und|der auch mir er-|wie * * sen das,|was mir nütz * und|gut. Nun,|
w: wie * ver- gelt ichs|dir? Ach,|blei- be mir ge-|nei * * get, so|will ich für * und|für den|
 (d2 B2) B2 c4 c2 | A6 d4 B2 | (A2 G2) F2 F4 =E2 | F6 z4 B2 | B4 B2 A4 B2 | A6 A4 B2 | %23
w: soll * dich stünd- lich|eh- ren mein|Mund * vor je- der-|mann und|dei- nen Ruhm ver-|meh- ren, so-|
w: dies * ist mei- ne|Freu- de, zu|han * gen fest an|dir, daß|nichts von dir mich|schei- de, so-|
w: Kelch * des Heils er-|he- ben und|prei * sen weit und|breit dich|hier, mein Gott, im|Le- ben und|
 B4 A2 (d2 c2) B2 | A6 B4 |] %25
w: lang er lal * len|kann. *|
w: lang ich le * be|hier. *|
w: dort in E * wig-|keit. *|
V:4
 B,2 | B,4 F,2 G,4 D,2 | (E,3 D, C,2) B,,4 B,2 | B,4 G,2 B,4 F,2 | (G,2 E,2) F,2 B,,4 B,2 | %5
w: Man|lobt dich in der|Stil * * le, du|hoch er- hab- ner|Zi- * ons- gott; des|
w: Es|müs- sen, Herr, sich|freu- * * en von|gan- zer Seel und|jauch- * zen hell, die|
w: Herr,|du hast dei- nen|Na- * * men sehr|herr­ lich in der|Welt * ge- macht; denn|
 B,4 F,2 G,4 D,2 | (E,3 D, C,2) B,,4 B,2 | B,4 G,2 B,4 F,2 | (G,2 E,2) F,2 B,,4 B,2 | %9
w: Rüh- mens ist die|Fül * * le vor|dir, o Her- re|Ze- * ba- oth. Du|
w: un- auf- hör- lich|schrei- * * en: Ge-|lobt sei der Gott|Is- * ra- el! Sein|
w: als die Schwa- chen|ka- * * men, hast|du gar bald an|sie * ge- dacht. Du|
 G,4 B,2 (A,2 F,2) B,2 | (B,,2 C,2 D,2) E,4 C,2 | (F,2 C,2) D,2 B,,2 C,4 | F,6 z4 F,2 | %13
w: bist doch, Herr, * auf|Er * * den der|From * ­ men Zu- ver-|sicht, in|
w: Na- me sei * ge-|prie * * sen, der|gro * ße Wun- der|tut und|
w: hast mir Gnad * er-|zei * * get; nun,|wie * ver- gelt ichs|dir? Ach,|
 E,4 D,2 (E,2 C,2) F,2 | B,,6 E,4 D,2 | C,4 E,2 B,,4 B,,2 | F,6 z4 F,2 | B,4 G,2 C4 C,2 | %18
w: Trüb- sal und * Be-|schwer- den läßt|du die Dei- nen|nicht. Drum|soll dich stünd- lich|
w: der auch mir * er-|wie sen das,|was mir nütz und|gut. Nun,|dies ist mei- ne|
w: blei- be mir * ge-|nei get, so|will ich für und|für den|Kelch des Heils er-|
 F,6 G,4 B,2 | (F,2 C,2) D,2 B,,2 C,4 | F,6 z4 B,,2 | E,4 B,,2 F,4 G,2 | F,6 F,4 B,2 | %23
w: eh- ren mein|Mund * vor je- der-|mann und|dei- nen Ruhm ver-|meh- ren, so-|
w: Freu- de, zu|han * gen fest an|dir, daß|nichts von dir mich|schei- de, so-|
w: he- ben und|prei * sen weit und|breit dich|hier, mein Gott, im|Le- ben und|
 (E,2 B,,2) F,2 (G,2 A,2) B,2 | (F,6 B,,4) |] %25
w: lang * er lal * len|kann. *|
w: lang * ich le * be|hier. *|
w: dort * in E * wig-|keit. *|

